X:4
T:Jackie Donnan's Mazurka
T:Barnacle, The
R:mazurka
H:A version appears in Roche's collection as "The Barnacle" Redowa
Z:id:hn-mazurka-4
M:3/4
K:D
dB|:A2 AF AB|d2 dB df|e2 ed ef|a2 af ef|
A2 AF AB|d2 dB df|e2 ed ef|1 d2 dB dB:|2 d2 dA de||
|:f2 fe de|f2 fe df|e2 ec Ac|e2 e2 de|
f2 fe de|f2 fe df|a2 fd ef|d2 d2 Ad:|
|:f2 f2 ef|d2 d2 dc|B2 BA FA|dB BA FA|
f2 f2 ef|d2 d2 af|e2 ed ef|1 d2 d2 Ad:|2 d2 d2||
<end>
<start>
